X: 6
T: O'Mahoney's
R: reel
M: 4/4
L: 1/8
K: Dmaj
AF ~F2 DF ~F2 | A,F ~F2 ABde | fdad bdad | edge cABc |d2 cd BAFE | ~D2 CD d3 c | BGGF GBed | cABc d2 :|f2 fe fgfe | df ~f2 af ~f2 | dfaf b^gaf | geed eAce |f2 fe fgfe | df ~f2 af ~f2 | bgaf gf gfed | ceAc d2 :|a2 fa b2 gb | affe fgaf | geed efge | baa^g a2 fg |a2 fa b2 gb | affe fgaf | gefd ecdB | cABc d2 :|Ad ~d Adfg | adfa bagf | geed edcB | (3ABA ^GB A2 fg |Ad ~d Adfg | adfa bagf | geed edcB | Agfe d2 :|


Tune 2716	Setting 15948

